X:1
T:Title
%%score { 1 | 2 }
L:1/8
M:3/4
K:Eb
V:1 treble nm="Grand Piano"
V:2 bass 
V:1
 z2 z2 z[Q:1/4=100] E | G>G G3 F | G>B B3 B | c>c B3 G |[M:5/8] [FA]>[EG] [DF]3 |[M:1/8] [AB] | %6
[M:3/4] [Ge]>[Ae] [Be]3 B | c>c e3 [Ec] | B>c BE [EG]2 |[M:5/8] [DF]2 E3 | %10
[M:4/4] B[Ge]- [Ge]/[Ge]/[Ae] [Ac] [GB]3 |[M:7/8] [GB][Ac][ce] [Bd][Ac] [GB]2- |[M:1/8] [GB] | %13
 [AB] |[M:3/4] [Ge]>[Ae] [Be]3 B | c>c e3 [Ec] | B>c BE [EG]2 |[M:13/8] [DF]2 E3 z z z z z z z2 |] %18
V:2
 z2 z2 z [E,G,B,] | [E,B,E]>[E,CE] [E,B,E]3 [A,B,D] | [G,B,E]>[F,A,D] [E,G,E]3 [E,G,E] | %3
 [E,A,E]>[E,A,E] [E,G,E]3 [E,B,E] |[M:5/8] [D,B,]>[E,B,] [B,,B,]3 |[M:1/8] [D,B,] | %6
[M:3/4] [E,B,]>[F,B,] [G,B,]3 [E,G,E] | [A,E]>[A,E] [A,CE]3 [A,,A,] | %8
 [E,G,E]>[E,A,E] [E,G,E][C,G,] [B,,B,]2 |[M:5/8] [B,,A,]2 [E,G,]3 | %10
[M:4/4] [E,G,E][E,B,]- [E,B,]/[E,B,]/[E,C] [E,D] [E,E]3 | %11
[M:7/8] [E,E][A,E][A,C] [A,D][A,E] [E,E]2- |[M:1/8] [E,E] | [D,B,] | %14
[M:3/4] [E,B,]>[F,B,] [G,B,]3 [E,G,E] | [A,E]>[A,E] [A,CE]3 [A,,A,] | %16
 [E,G,E]>[E,A,E] [E,G,E][C,G,] [B,,B,]2 |[M:13/8] [B,,A,]2 [E,G,]3 z z z z z z z2 |] %18

